X:1005
T:Donald McQueen.
N:similar to Alexander Campbell's "Miss Maclaine of Torloisk" (in F# minor)
M:C|
L:1/8
Q:1/4=120
I: :: ||
Z:Jack Campin * www.campin.me.uk * 2009
K:A Minor
E<GG>E TG2  G2|c<AA>G A2A2|c>dec d>eg>a|(a/g/f/e/) fdcA   TA2:|
e<gTg>e e<gTg2|g<aa>g a2a2|g>age d>edB | c>AB>G      A/A/A A2:|

